icons/graph-box-mean-lines-24.svg

<?xml version="1.0" encoding="UTF-8"?><svg id="icons" xmlns="http://www.w3.org/2000/svg" viewBox="0 0 24 24"><defs><style>.cls-1{fill:none;}.cls-1,.cls-2{stroke-width:0px;}</style></defs><rect class="cls-1" width="24" height="24"/><path class="cls-2" d="m23,22v1H1V1h1v21h21Zm0-10v-5h-2V2h1v-1h-3v1h1v1.69092l-6,3v-1.69092h1v-1h-3v1h1v2h-4v-1h-2v-3h1v-1h-3v1h1v3h-2v6h2v3h-1v1h3v-1h-1v-3h1.79303l2.20697,1.68683v3.31317h2v2h-1v1h3v-1h-1v-2h2v-3.04608l2.91473-1.95392h1.08527v5h-1v1h3v-1h-1v-5h2Zm-8,1.42023l-1.43945.96503-1.56055-1.19287v-1.19238h3v1.42023Zm-10-2.42023v-4h1.5v1h1.5v2.13477l-.69629-.53223-.60742.79492.78833.60254h-2.48462Zm4-.10083v-2.89917h4v3h-2v1.42798l-2-1.52881Zm6,5.10083h-3v-1.54889l1.52246,1.16364,1.47754-.99048v1.37573Zm-1-5v-3.19092l6-3v2.19092h-2v4.40906l-2,1.34082v-1.74988h-2Zm6.40643,0l.87189-.58447-.55664-.83105-1.72168,1.15417v-2.73865h3v3h-1.59357Z"/></svg>

<svg xmlns="http://www.w3.org/2000/svg" viewBox="0 0 24 24"><path stroke-width="0" fill="none" d="M0 0h24v24H0z"/><path d="M23 22v1H1V1h1v21h21zm0-10V7h-2V2h1V1h-3v1h1v1.69l-6 3V5h1V4h-3v1h1v2H9V6H7V3h1V2H5v1h1v3H4v6h2v3H5v1h3v-1H7v-3h1.793L11 13.687V17h2v2h-1v1h3v-1h-1v-2h2v-3.046L18.915 12H20v5h-1v1h3v-1h-1v-5h2zm-8 1.42l-1.44.965L12 13.192V12h3v1.42zM5 11V7h1.5v1H8v2.135l-.696-.532-.608.794.789.603H5zm4-.1V8h4v3h-2v1.428l-2-1.529zm6 5.1h-3v-1.549l1.522 1.164 1.478-.99V16zm-1-5V7.81l6-3V7h-2v4.41l-2 1.34V11h-2zm6.406 0l.872-.584-.556-.832L19 10.74V8h3v3h-1.594z" stroke-width="0"/></svg>
